markets/XLM.svg

<svg width="42" height="42" viewBox="0 0 42 42" fill="none" xmlns="http://www.w3.org/2000/svg">
<circle cx="21" cy="21" r="21" fill="black"/>
<g clip-path="url(#clip0_7698_9612)">
<path d="M31.36 12.1389L27.9448 13.8789L11.4532 22.2789C11.3974 21.8536 11.3694 21.4251 11.3692 20.9961C11.3715 19.2845 11.8208 17.6033 12.6728 16.1188C13.5248 14.6343 14.7498 13.3982 16.2265 12.5328C17.7032 11.6675 19.3803 11.2029 21.0918 11.1852C22.8033 11.1675 24.4897 11.5972 25.984 12.4317L27.9388 11.4357L28.2304 11.2869C26.4397 9.98718 24.3245 9.20787 22.1185 9.03511C19.9126 8.86235 17.7018 9.30287 15.7306 10.308C13.7594 11.3131 12.1044 12.8437 10.9487 14.7305C9.79293 16.6174 9.18137 18.787 9.1816 20.9997C9.1816 21.3053 9.1932 21.6097 9.2164 21.9129C9.24889 22.3423 9.15367 22.7717 8.9427 23.1471C8.73174 23.5224 8.41446 23.827 8.0308 24.0225L7 24.5481V26.9997L10.0348 25.4529L11.0176 24.9513L11.986 24.4581L29.3716 15.5997L31.3252 14.6049L35.3632 12.5469V10.0965L31.36 12.1389Z" fill="white"/>
<path d="M35.3632 15L12.9736 26.4L11.02 27.3972L7 29.4456V31.8948L10.9924 29.8608L14.4076 28.1208L30.916 19.7088C30.9718 20.1369 30.9999 20.5682 31 21C30.9989 22.7136 30.5497 24.397 29.6969 25.8833C28.8441 27.3696 27.6174 28.6069 26.1386 29.4726C24.6598 30.3382 22.9802 30.802 21.2668 30.8179C19.5533 30.8338 17.8654 30.4012 16.3708 29.5632L16.2508 29.6268L14.1316 30.7068C15.9219 32.0066 18.0367 32.7861 20.2423 32.9593C22.4479 33.1325 24.6584 32.6925 26.6296 31.6881C28.6009 30.6837 30.2561 29.1539 31.4123 27.2677C32.5686 25.3815 33.1809 23.2124 33.1816 21C33.1816 20.6916 33.1696 20.3832 33.1468 20.0784C33.1144 19.6492 33.2095 19.2199 33.4202 18.8446C33.6309 18.4693 33.9479 18.1646 34.3312 17.9688L35.3632 17.4432V15Z" fill="white"/>
</g>
<defs>
<clipPath id="clip0_7698_9612">
<rect width="28.3632" height="24" fill="white" transform="translate(7 9)"/>
</clipPath>
</defs>
</svg>

<svg width="42" height="42" viewBox="0 0 42 42" fill="none" xmlns="http://www.w3.org/2000/svg"><circle cx="21" cy="21" r="21" fill="#000"/><g clip-path="url(#clip0_7698_9612)" fill="#fff"><path d="M31.36 12.139l-3.415 1.74-16.492 8.4a9.824 9.824 0 0114.53-9.847l1.956-.996.291-.15A12 12 0 009.216 21.914a2.183 2.183 0 01-1.185 2.11L7 24.547V27l3.035-1.547.983-.502.968-.493L29.372 15.6l1.953-.995 4.038-2.058v-2.45l-4.003 2.042zM35.363 15l-22.39 11.4-1.953.997L7 29.446v2.449l3.992-2.034 3.416-1.74 16.508-8.412a9.825 9.825 0 01-14.545 9.854l-.12.064-2.12 1.08a12 12 0 0019.016-10.629 2.185 2.185 0 011.184-2.11l1.032-.525V15z"/></g><defs><clipPath id="clip0_7698_9612"><path fill="#fff" transform="translate(7 9)" d="M0 0h28.363v24H0z"/></clipPath></defs></svg>
